X:1
T:Avalon
C:Vincent Rose
R:Med. Up
M:C|
L:1/2
K:F
C||"Gm7"GA|BC|"C7"B/A/G-|GC|
"F6"F2-|"Gm7"F"C7"G|"Fmaj7"A2-|"Am7"A"D7"C|
"Gm7"EF|GF|"C7"E/D/C-|CD|
"Fmaj7"A2-|"Gm7"A"C7"D|"Fmaj7"A2-|AD||
"Am7"AB|cd|"D7"cc/B/A-|A D|
"Gm7"G2-|GA|"Bbm7"B2-|"Eb7"B"Bb7"D|
"Am7"CF|Ac|"D7"e/d/e-|ed|
"Gm7"B2|"C7"A2|"F6"F2|"(Gm7"z"C7)"z|]